icons/source/generic/train.svg

<?xml version="1.0" encoding="utf-8"?>
<!-- Generated by IcoMoon.io -->
<!DOCTYPE svg PUBLIC "-//W3C//DTD SVG 1.1//EN" "http://www.w3.org/Graphics/SVG/1.1/DTD/svg11.dtd">
<svg version="1.1" xmlns="http://www.w3.org/2000/svg" xmlns:xlink="http://www.w3.org/1999/xlink" width="32" height="32" viewBox="0 0 32 32">
<path d="M29.961 30.914l-1.823-1.836h1.598v-1.148h-2.738l-1.792-1.805c1.135-0.345 1.973-1.392 1.973-2.635l-0.463-17.048c0-0.175-0.018-0.346-0.050-0.513-0.168-2.231-4.569-5.018-10.547-5.018-5.985 0-10.391 2.793-10.548 5.026-0.031 0.164-0.050 0.333-0.050 0.505l-0.46 17.048c0 1.243 0.837 2.289 1.973 2.635l-1.777 1.805h-2.698v1.148h1.568l-1.806 1.836h-2.174v1.439h32.001v-1.439h-2.187zM6.903 11.507v-2.762c0-0.507 0.415-0.921 0.922-0.921h16.588c0.506 0 0.921 0.414 0.921 0.921v2.762c0 0.507-0.415 0.921-0.921 0.921h-16.588c-0.507 0.001-0.922-0.413-0.922-0.921zM18.26 17.999c0 1.166-0.946 2.111-2.113 2.111s-2.112-0.945-2.112-2.111c0-1.167 0.946-2.112 2.112-2.112s2.113 0.945 2.113 2.112zM9.509 26.255h13.218l1.66 1.675h-16.533l1.655-1.675zM4.905 30.914l1.813-1.836h18.807l1.818 1.836h-22.438z"></path>
</svg>

<svg xmlns="http://www.w3.org/2000/svg" width="32" height="32" viewBox="0 0 32 32"><path d="M29.961 30.914l-1.823-1.836h1.598V27.93h-2.738l-1.792-1.805c1.135-.345 1.973-1.392 1.973-2.635l-.463-17.048a2.72 2.72 0 0 0-.05-.513C26.498 3.698 22.097.911 16.119.911c-5.985 0-10.391 2.793-10.548 5.026a2.72 2.72 0 0 0-.05.505l-.46 17.048c0 1.243.837 2.289 1.973 2.635L5.257 27.93H2.559v1.148h1.568l-1.806 1.836H.147v1.439h32.001v-1.439h-2.187zM6.903 11.507V8.745c0-.507.415-.921.922-.921h16.588c.506 0 .921.414.921.921v2.762a.924.924 0 0 1-.921.921H7.825a.923.923 0 0 1-.922-.921zm11.357 6.492a2.112 2.112 0 1 1-4.224-.002A2.112 2.112 0 0 1 18.26 18zm-8.751 8.256h13.218l1.66 1.675H7.854l1.655-1.675zm-4.604 4.659l1.813-1.836h18.807l1.818 1.836H4.905z"/></svg>
